svg/u1f9f2.svg

<svg viewBox="0 0 128 128" xmlns="http://www.w3.org/2000/svg">
  <g>
    <path d="M67.76,93.24c-17.11,0-30.86-6.73-30.86-22.95c0-16.22,13.65-22.55,30.86-22.55h26.29V16.97H67.76 c-30.02,0-55.17,15.08-61.54,40.54H4.65v12.97c0,33.24,28.29,53.51,63.11,53.51h26.29V93.24H67.76z" fill="#C62828"/>
    <rect height="30.76" fill="#82AEC0" width="29.3" x="94.05" y="93.24"/>
    <rect height="30.76" fill="#82AEC0" width="29.3" x="94.05" y="16.97"/>
    <path d="M67.76,80.26c-17.11,0-30.86-6.73-30.86-22.95c0-16.22,13.65-22.55,30.86-22.55h26.29V4H67.76 C32.94,4,4.65,24.28,4.65,57.51c0,33.24,28.29,53.51,63.11,53.51h26.29V80.26H67.76z" fill="#F44336"/>
    <rect height="30.76" fill="#E0E0E0" width="29.3" x="94.05" y="80.26"/>
    <rect height="30.76" fill="#E0E0E0" width="29.3" x="94.05" y="4"/>
  </g>
</svg>

<svg viewBox="0 0 128 128" xmlns="http://www.w3.org/2000/svg">
  <defs/>
  <path d="M67.76,93.24 C50.65,93.24 36.9,86.51 36.9,70.29 C36.9,54.07 50.55,47.74 67.76,47.74 L94.05,47.74 L94.05,16.97 L67.76,16.97 C37.74,16.97 12.59,32.05 6.22,57.51 L4.65,57.51 L4.65,70.48 C4.65,103.72 32.94,123.99 67.76,123.99 L94.05,123.99 L94.05,93.24 L67.76,93.24 Z" fill="#C62828"/>
  <path d="M94.05,93.24 L123.35,93.24 L123.35,124 L94.05,124 L94.05,93.24 Z" fill="#82AEC0"/>
  <path d="M94.05,16.97 L123.35,16.97 L123.35,47.73 L94.05,47.73 L94.05,16.97 Z" fill="#82AEC0"/>
  <path d="M67.76,80.26 C50.65,80.26 36.9,73.53 36.9,57.31 C36.9,41.09 50.55,34.76 67.76,34.76 L94.05,34.76 L94.05,4 L67.76,4 C32.94,4 4.65,24.28 4.65,57.51 C4.65,90.75 32.94,111.02 67.76,111.02 L94.05,111.02 L94.05,80.26 L67.76,80.26 Z" fill="#F44336"/>
  <path d="M94.05,80.26 L123.35,80.26 L123.35,111.02 L94.05,111.02 L94.05,80.26 Z" fill="#E0E0E0"/>
  <path d="M94.05,4 L123.35,4 L123.35,34.76 L94.05,34.76 L94.05,4 Z" fill="#E0E0E0"/>
</svg>
